!!!OTL: ACH AUS DIESES THALES GRUENDEN
!!!ARE: Europa, Mitteleuropa, Deutschland
!!!SCT: B0248
!!!YEM: Copyright 1995, estate of Helmut Schaffrath.
**kern
*ICvox
*Ivox
*M4/4
*k[b-]
*F:
{8cc
8b-
=1
4.a
8g
8f
4dd
8cc
=2
4cc
4b-
4r}
{8g
8f
=3
4.e
8g
4.cc
8g
=4
4b-
4a
4r}
{8bn
8bn
=5
4.cc
8cc
4dd
4g
=6
4.ee
8ee}
{8ee
8ff
8a
8dd
=7
4cc
8bn
8cc
4.ee
8dd
=8
4cc
2r}
{8cc
8cc
=9
4.ee
8ee
8ff
8ee
8dd
8cc
=10
4ff
4cc
4r}
{8cc
8cc
=11
4.b-
8b-
4b-
8cc
8b-
=12
2a
4r}
{8a
8a
=13
4b-
4dd
4.ff
8ee-
=14
4cc#
4dd
8r}
{8dd
8ee
8ff
=15
4.ff
8a
4.cc
8e
=16
2f
4r}
==
!!!AGN: Stimmungs - Lied, Sehnsucht
!!!ONB: ESAC (Essen Associative Code) Database: BOEHME
!!!AMT: simple quadruple
!!!AIN: vox
!!!EED: Helmut Schaffrath
!!!EEV: 1.0
*-
